rospo-newyear-dark/symbolic/devices/media-removable-symbolic.svg

<svg height="16" width="16" xmlns="http://www.w3.org/2000/svg"><path d="m5 1s-1 0-1 1v9s0 1 1 1h6c1 0 1-1 1-1v-9c0-1-1-1-1-1zm0 12v2h6v-2z" fill="#d3dae3"/></svg>

<svg xmlns="http://www.w3.org/2000/svg" width="16" height="16" version="1.1">
 <path style="fill:#d3dae3" d="M 5,1 C 5,1 4,1 4,2 V 11 C 4,11 4,12 5,12 H 11 C 12,12 12,11 12,11 V 2 C 12,1 11,1 11,1 Z M 5,13 V 15 H 11 V 13 Z"/>
</svg>
